X:1
T:Title
%%score { ( 1 3 ) | ( 2 4 ) }
L:1/8
M:6/4
K:Eb
V:1 treble nm="Grand Piano"
V:3 treble 
V:2 bass 
V:4 bass 
V:1
 z6 z4[Q:1/4=114] E2 | G4 G>[FA] [GB]2 [GB]2 [EG]2 | [DF]2 [DF]2 [FA]2 [EG]4 [GB]2 | %3
 [GB]3 [_G=A] [=GB]2 [Ac]2 [GB]2 G2 | F2 E2 G2 [DF]4 [DF]2 | %5
 [B,EG]2 [B,EG]2 [B,FA]2 [B,GB]2 [B,EG]2 [EGB]2 | [EAc]2 [EAd]2 [EAc]2 [EGB]4 [B,GB]2 | %7
[M:13/8] [Ge]3 [Bd] [Ac]2 [GB]2 [Ge]3 [B,EG]2 |[M:5/4] [B,DB]2 [A,DF]2 [B,DG]2 [G,B,E]4 | %9
[M:1/4] G>G |[M:6/4] G12 | [B,GB]2 [B,EB]2 [DAB]2 [EGB]4 A>G | F12 | %13
 [FA]2 [GB]2 [FA]2 [EG]4 [GB]2 | [GB]3 [GB] [GB]2 [EG]4 [GB]>[GB] | c2 d2 c2 [GB]4 [Be]>[Be] | %16
[M:7/4] e2- e2- e2- e6 z2 |[M:5/4] [DB]2 [DF]2 [DG]2 [G,B,E]4 |] %18
V:2
 z6 z4 [E,G,B,]2 | [E,B,E]4 [E,B,E]>[E,B,] [E,E]2 [E,E]2 [E,B,]2 | %2
 [B,,B,]2 [B,,B,]2 [B,,B,]2 [E,B,]4 [E,B,]2 | [E,E]3 [E,E] [E,E]2 [E,E]2 [E,B,]2 [E,B,E]2 | %4
 [F,B,D]2 [F,=A,C]2 [F,A,E]2 [B,,B,]4 [B,,B,]2 | E,2 E,2 E,2 E,2 E,2 E,2 | A,2 A,2 A,2 E,4 E,2 | %7
[M:13/8] [E,B,]3 [E,B,] [E,B,]2 [E,E]2 [E,B,]3 E,2 |[M:5/4] B,,2 B,,2 B,,2 E,4 |[M:1/4] E>E | %10
[M:6/4] E12 | E,2 G,2 F,2 E,4[K:treble] F>E | D12[K:bass] | %13
 [B,,B,]2 [B,,B,]2 [B,,B,]2 [E,B,]4 [E,B,]2 | [E,E]3 [E,E] [E,E]2 [E,B,]4 [E,E]>[E,E] | %15
 [A,EA]2 [A,EA]2 [A,EA]2[K:bass] [E,E]4 [G,_D]>[K:treble][G,D] | %16
[M:7/4] [A,CA]4[K:bass] [A,=B,]>[A,B,] [E,_B,]6 [E,B,E]>[E,B,E] | %17
[M:5/4] [B,,B,]2 [B,,A,]2 [B,,B,]2 [E,,E,]4 |] %18
V:3
 x12 | x12 | x12 | x12 | x12 | x12 | x12 |[M:13/8] x13 |[M:5/4] x10 |[M:1/4] x2 | %10
[M:6/4] z4 B,2 B,4 [B,EG]>[B,FA] | x12 | z4 B,2 B,4 [DF]>[EG] | x12 | x12 | x12 | %16
[M:7/4] z4 E>F G6 G>A |[M:5/4] x10 |] %18
V:4
 x12 | x12 | x12 | x12 | x12 | x12 | x12 |[M:13/8] x13 |[M:5/4] x10 |[M:1/4] x2 | %10
[M:6/4] z4 E,2 E,4 E,>E, | x10[K:treble] x2 | z4[K:bass] B,,2 B,,4 [B,,B,]>[B,,B,] | x12 | x12 | %15
 x6[K:bass] x11/2[K:treble] x/ |[M:7/4] x4[K:bass] x10 |[M:5/4] x10 |] %18

